!!!!SEGMENT: pl-kk--kk-i-6--063_anonim--deo-gratias.krn
!!!cenid: 16xx:1059
!!!COM: Anonim
!!!COM-rismid: pe30004985
!!!CDT:
!!!CNT:
!!!OTL: Deo gratias
!!!PDT:
!!!AGN:
!!!SMS-siglum: PL-Kk
!!!SMS-shelfmark: Kk.I.6
!!!SMS-shelfwork: 063 W
!!!SMS-variant:
!!!SMS-altvar:
!!!NIFC-rismid: 1001136582
!!!URL-scan: http://repozytorium.nifc.pl/skany/pl-kk-nut--i-6
!!!ONB-nifc: UWAGA: C (skan 0088, s. 172), T (skan 0199, s. 203), B (skan 0312, s. 207) Aliud de B.V. Maria
!!!AIN: 1 empty 1 tenor 1 vox
!!!key:
**kern	**text	**kern	**text	**kern	**text
*group1	*	*group1	*	*group1	*
*part3	*part3	*part2	*part2	*part1	*part1
*staff3	*staff3	*staff2	*staff2	*staff1	*staff1
*Iempty	*	*Itenor	*	*Ivox	*
*I"Baſsus.	*	*I"Tenor.	*	*I"Cantus.	*
*I'[B]	*	*I'[T]	*	*I'[S]	*
*clefF4	*	*clefC4	*	*clefC4	*
*k[]	*	*k[]	*	*k[]	*
*d:	*	*d:	*	*d:	*
*M2/1	*	*M2/1	*	*M2/1	*
*	*	*	*	*lig	*
=1-	=1-	=1-	=1-	=1-	=1-
2.AA/	De-	2A/	De-	1A	De-
!	!	!LO:TX:t=P:problem=2\middle&colon; global	!	!	!
.	.	2.c\	-o	.	.
!LO:TX:t=P:problem=4/middle&colon; global	!	!	!	!	!
4BB/	-o	.	.	.	.
4C/	gra-	.	.	1E	.
!	!	!LO:TX:t=P:problem=4\middle&colon; global	!	!	!
4AA/	.	4d\	gra-	.	.
4C/	.	2.e\	.	.	.
4D/	.	.	.	.	.
*	*	*	*	*Xlig	*
=2-	=2-	=2-	=2-	=2-	=2-
*	*	*	*	*lig	*
1E	.	.	.	1G	.
.	.	4d\	.	.	.
.	.	4B\	.	.	.
.	.	4c\	.	.	.
2D/	.	2d\	.	1A	.
!LO:TX:t=P:problem=2\middle&colon; global	!	!	!	!	!
2E\	-ti-	1c\	.	.	.
*	*	*	*	*Xlig	*
=3-	=3-	=3-	=3-	=3-	=3-
*	*	*	*	*lig	*
1F	-as	.	.	1A	.
.	.	2A/	-ti-	.	.
*custos:E	*	*custos:B	*	*	*
!LO:LB:g=original	!	!LO:LB:g=original	!	!	!
*	*ij	*	*	*	*
2.E\	De-	2B\	-as	1G	-o
*	*	*	*ij	*	*
.	.	2.c\	De-	.	.
4D/	-o	.	.	.	.
*	*	*	*	*Xlig	*
=4-	=4-	=4-	=4-	=4-	=4-
*	*	*	*	*lig	*
2C/	gra-	.	.	1A	gra-
.	.	4B\	-o	.	.
2D/	.	1A	gra-	.	.
1BB	.	.	.	1B	.
.	.	2G/	.	.	.
*	*	*	*	*custos:c	*
!	!	!	!	!LO:LB:g=original	!
*	*	*	*	*Xlig	*
=5-	=5-	=5-	=5-	=5-	=5-
*	*	*	*	*lig	*
2.AA/	.	4A/	.	1c	.
.	.	4B\	.	.	.
.	.	4c\	.	.	.
4BB/	.	4d\	.	.	.
2C/	.	2e\	.	1A	.
2D/	.	4d\	.	.	.
.	.	4c\	.	.	.
*	*	*	*	*Xlig	*
=6-	=6-	=6-	=6-	=6-	=6-
2E\	.	4B\	.	1G	.
.	.	4A/	.	.	.
4D/	.	4B\	.	.	.
4C/	.	4c\	.	.	.
*	*	*	*	*lig	*
1BB	-ti-	2d\	.	1G	-ti-
.	.	2B\	.	.	.
*	*	*custos:e	*	*	*
!	!	!LO:LB:g=original	!	!	!
=7-	=7-	=7-	=7-	=7-	=7-
2AA/	-as	2e\	.	[0A/l;;	-as.
*	*Xij	*	*	*	*
*	*ij	*	*	*	*
2A\	De-	1c	.	.	.
2F\	-o	.	.	.	.
2D/	gra-	2d\	.	.	.
*	*	*	*	*Xlig	*
=8-	=8-	=8-	=8-	=8-	=8-
1A	-ti-	1e	.	0Al_	.
1D	-as	2f\	.	.	.
*	*Xij	*	*	*	*
.	.	2d\	.	.	.
=9-	=9-	=9-	=9-	=9-	=9-
2r	.	2c\	.	0Al_	.
*	*ij	*	*	*	*
2D/	De-	2d\	.	.	.
2D/	-o	2f\	.	.	.
2C/	gra-	2e\	.	.	.
=10-	=10-	=10-	=10-	=10-	=10-
1D	-ti-	1d	-ti-	0.Al]	.
0AA;;	-as	0c#X;;	-as	.	.
*	*Xij	*	*	*	*
=-	=-	=-	=-	=-	=-
*-	*-	*-	*-	*-	*-
!!!system-decoration: [(g1)]
!!!ENC: Anastazja Marusiak
!!!END: 2021-10-25
!!!EED: Jędrzej Mróz
!!!ESR: 2021-10-28
!!!RDF**kern: > = above
!!!RDF**kern: < = below
!!!RDF**kern: l = terminal long
